X:124
T:The Rolling Wave
M:6/8
L:1/8
R:jig
K:D
|:F2E EDE|F2D DED|F2E DFA|d2e fdA|F2E EDE|F2D DED|AFE DFA|B3 d3:|
|:ABd e2f|d2c B2A|ABd e2f|d2A B3|ABd e2f|d2c B2A|AFE DFA|B3 d3:|
